svgs/sharp-regular/hand-point-up.svg

<svg xmlns="http://www.w3.org/2000/svg" viewBox="0 0 384 512"><!--! Font Awesome Pro 6.4.2 by @fontawesome - https://fontawesome.com License - https://fontawesome.com/license (Commercial License) Copyright 2023 Fonticons, Inc. --><path d="M40 0H16V24 240H0v24 56 0 24s0 0 0 0c0 92.8 75.2 168 168 168h48c92.7 0 167.9-75.1 168-167.9c0 0 0-.1 0-.1v0V256 216 192H360 304V176H280 224v-8V144H200 144V24 0H120 40zM336 256v80H304V240h32v16zm-6.8 128c-16.5 46.6-60.9 80-113.2 80H168c-66.3 0-120-53.7-120-120c0 0 0 0 0 0V320v0V288h72 56v32H120 96v48h24 56 24 24 32v16h24 49.2zM96 240H64V48H96v96 24 72zm80 0H144V192h32v8 40zm48-16h32v96H224V264 224z"/></svg>

<svg xmlns="http://www.w3.org/2000/svg" viewBox="0 0 384 512"><!--! Font Awesome Pro 6.6.0 by @fontawesome - https://fontawesome.com License - https://fontawesome.com/license (Commercial License) Copyright 2024 Fonticons, Inc. --><path d="M40 0L16 0l0 24 0 216L0 240l0 24 0 56s0 0 0 0l0 24s0 0 0 0c0 92.8 75.2 168 168 168l48 0c92.7 0 167.9-75.1 168-167.9l0-.1s0 0 0 0l0-88 0-40 0-24-24 0-56 0 0-16-24 0-56 0 0-8 0-24-24 0-56 0 0-120 0-24L120 0 40 0zM336 256l0 80-32 0 0-96 32 0 0 16zm-6.8 128c-16.5 46.6-60.9 80-113.2 80l-48 0c-66.3 0-120-53.7-120-120c0 0 0 0 0 0l0-24s0 0 0 0l0-32 72 0 56 0 0 32-56 0-24 0 0 48 24 0 56 0 24 0 24 0 32 0 0 16 24 0 49.2 0zM96 240l-32 0L64 48l32 0 0 96 0 24 0 72zm80 0l-32 0 0-48 32 0 0 8 0 40zm48-16l32 0 0 96-32 0 0-56 0-40z"/></svg>
